X: 10925
T: Drumbshambles
R: reel
M: 4/4
K: Dmajor
dBBd ABde|faaf efdc|dB (3BBB ABdB|AFDF EFD2|
dBBd ABde|faaf efdc|GBBF ABdB|AFDF E3 D:|
DBBF ABdB|AF (3FFF EFDF|DBBF ABde|faaf efdc|
GBBF ABdB|AF (3FFF EFDc|dBBd AFEF|GBAF E3 D:|

